X:1
T:My Song of Today
T:(Oh, How I Love Thee, Jesus)
T:Nicola A. Montani (1880-1948)
T:St. Thérèse of Lisieux (1873-1897)
T:Arrangement by Erin McFarland©2015
Z:Arrangement by Erin McFarland©2015
%%score { 1 | ( 2 3 ) }
L:1/8
M:3/4
K:Eb
V:1 treble nm="Piano" snm="Pno."
V:2 bass 
V:3 bass 
V:1
 E2 G2 A2 | B4 E2 | (c6 | B4) B2 | (B2 G2) F2 | E2 G2 F2 | F6- | F4 F2 | G2- G2 G2 | B4 B2 | (A6 | %11
w: Oh how I|love Thee,|Je-|sus! my|soul _ a-|spires _ to|Thee,|_ and|yet _ for|one day|on-|
w: But if I|dare take|thought|_ of|what _ the|mor- * row|brings,|_ it|fills _ my|fic- kle|heart|
w: O sweet- est|star of|heav-|en! O|vir- * gin|spot- * less|blest,|_ _|Shin- ing with|Je- sus'|light|
 G4) G2 | G2 F2 E2 | c4 c2 | B6- | B6 | B2 B2 B2 | _d2 c2 B2 | (B6 | A4) A2 | A4 A2 | c2 B2 A2 | %22
w: ly, my|sim- * ple|pray'r I|pray.|_|Come reign with-|in _ my|heart,|_ smile|ten- der-|ly _ on|
w: _ with|drea- * ry|dull dis-|may;|_|I crave in-|deed, _ my|God,|_ the|cross and|suff- 'rings to-|
w: _ _|guid- ing to|Him our|way!|_|Mo- ther be-|neath _ thy|veil|_ let|my tired|spi- * rit|
 G6- | G4 (F2 | E2) G2 A2 | B4 (E2 | c6) | B4 A2 | G4 E2 | F4 E2 | E6- | E6 |] %32
w: me|_ to-|day _ dear|Lord, to-|day|_ to-|day, dear|Lord, to-|day.|_|
w: day|_ to-|day _ dear|Lord, to-|day|_ but|on- ly|for to-|day.|_|
w: rest,|_ for|this _ dear|Lord, for|this|_ brief|pass- *|* ing|day.|_|
V:2
 [E,G,]6 | [G,B,]6 | [E,A,C]6 | [E,G,B,]4 D,2 | G,6 | [C,E,]6 | [E,B,-]6 | B,6 | [E,G,]6 | %9
 [_D,F,]6 | A,6 | [E,G,]6 | C,2 D,2 E,2 | G,2 =A,2 F,2 | [E,F,-]6 | [D,F,]6 | [_D,F,B,]6 | %17
 B,4 _D2 | [G,_D]6 | [F,C]4 [A,C]2 | [A,-F]4 [A,E]2 | C6 | =B,6 | [E,G,]4 z2 | B,6- | B,4 _D2 | %26
 A,6 | [E,G,]4 C2 | [G,B,]6 | [A,B,]6 | [E,-A,C]6 | [E,G,B,]6 |] %32
V:3
 x6 | x6 | x6 | x6 | E,4 D,2 | x6 | x6 | D,6 | x6 | x6 | C,4 D,2 | x6 | x6 | E,6 | x6 | x6 | x6 | %17
 F,6 | x6 | x6 | x6 | A,2 G,2 F,2 | D,4 F,2 | x6 | E,4 F,2 | G,6 | C,4 D,2 | x6 | x6 | x6 | x6 | %31
 x6 |] %32

